X: 0106
T: Brechin Lassies - 8x32$
P: Malcolm Beattie (of Galashiels) - the Piano Tuner
C: Muriel Johnstone
B: Miss Milligan's Miscellany v.1 #0106
B: Originally Ours v.1 p.170 #MMM-0106
Z: 2020 John Chambers <jc:trillian.mit.edu>
N: (Pickups and endings reorganized to make it all fit into 3 staves.)
M: 4/4
L: 1/8
R: reel
K: A
%
E |\
"A"A2A2 "E/A"A2Ac | "C#/A"BAAc "A7"BAAB | "D"d2fd "C#/A"c2Ac | "Bm"BAAB "E7"d2cB |\
"A"A2A2 "E/A"A2Ac | "F#m"BAAc "E"dcBd | "D"d2fd "E/A"caec | "Em"BAAc "A"A2 [1 A :|
[2 "E7"e2 [|\
"A"a2ea "C#/A"eAce | "D"fAdf "C#/A"eAce | "Bm"d2B2 "F#m"Bcde | "Bm"fBaB "E7"g2fg |\
"F#m"a2ea "E/A7"eAce | "D"fAdf "C#/A"eAce | "D"d2fd "E/A"caec | "E7"BABc "A"A2 ||
"E"(3efg |\
"A"a2ea "C#/A"eAce | "D"fAdf "C#/A"eAce | "Bm"d2B2 "F#m"Bcde | "Bm"fBaB "E7"g2fg |\
"F#m"a2fa "E/C#m"g2eg | "D"f2df "C#/A"e2ce | "Bm"dcBc "E7"Bcde | "A"a2"D"A2 "A"A4 |]
